dist/assets/img/icons/profile.svg

<svg width="44" height="44" viewBox="0 0 44 44" fill="none" xmlns="http://www.w3.org/2000/svg">
<path d="M22.4019 42.5C33.7402 42.5 42.9346 33.3234 42.9346 22C42.9346 10.6766 33.7402 1.5 22.4019 1.5C11.0635 1.5 1.86914 10.6766 1.86914 22C1.86914 33.3234 11.0635 42.5 22.4019 42.5Z" fill="white" stroke="#D29191" stroke-width="2"/>
<path d="M34.7382 33.2C34.0645 31.6042 33.0868 30.1547 31.8597 28.9321C30.6362 27.7061 29.1869 26.7286 27.5918 26.0536C27.5775 26.0464 27.5632 26.0429 27.5489 26.0357C29.7739 24.4286 31.2204 21.8107 31.2204 18.8571C31.2204 13.9643 27.2561 10 22.3632 10C17.4704 10 13.5061 13.9643 13.5061 18.8571C13.5061 21.8107 14.9525 24.4286 17.1775 26.0393C17.1632 26.0464 17.1489 26.05 17.1347 26.0571C15.5347 26.7321 14.0989 27.7 12.8668 28.9357C11.6408 30.1592 10.6632 31.6085 9.98823 33.2036C9.3251 34.7652 8.96745 36.4394 8.93466 38.1357C8.93371 38.1738 8.94039 38.2118 8.95432 38.2472C8.96825 38.2827 8.98915 38.3151 9.01578 38.3424C9.0424 38.3697 9.07422 38.3914 9.10936 38.4062C9.1445 38.421 9.18224 38.4286 9.22037 38.4286H11.3632C11.5204 38.4286 11.6454 38.3036 11.6489 38.15C11.7204 35.3929 12.8275 32.8107 14.7847 30.8536C16.8097 28.8286 19.4989 27.7143 22.3632 27.7143C25.2275 27.7143 27.9168 28.8286 29.9418 30.8536C31.8989 32.8107 33.0061 35.3929 33.0775 38.15C33.0811 38.3071 33.2061 38.4286 33.3632 38.4286H35.5061C35.5442 38.4286 35.582 38.421 35.6171 38.4062C35.6522 38.3914 35.6841 38.3697 35.7107 38.3424C35.7373 38.3151 35.7582 38.2827 35.7721 38.2472C35.7861 38.2118 35.7928 38.1738 35.7918 38.1357C35.7561 36.4286 35.4025 34.7679 34.7382 33.2ZM22.3632 25C20.7239 25 19.1811 24.3607 18.0204 23.2C16.8597 22.0393 16.2204 20.4964 16.2204 18.8571C16.2204 17.2179 16.8597 15.675 18.0204 14.5143C19.1811 13.3536 20.7239 12.7143 22.3632 12.7143C24.0025 12.7143 25.5454 13.3536 26.7061 14.5143C27.8668 15.675 28.5061 17.2179 28.5061 18.8571C28.5061 20.4964 27.8668 22.0393 26.7061 23.2C25.5454 24.3607 24.0025 25 22.3632 25Z" fill="#D29191"/>
</svg>

<svg width="44" height="44" fill="none" xmlns="http://www.w3.org/2000/svg"><path d="M22.402 42.5c11.338 0 20.533-9.177 20.533-20.5S33.74 1.5 22.402 1.5C11.063 1.5 1.869 10.677 1.869 22s9.194 20.5 20.533 20.5z" fill="#fff" stroke="#D29191" stroke-width="2"/><path d="M34.738 33.2a13.36 13.36 0 00-2.878-4.268 13.416 13.416 0 00-4.268-2.878c-.014-.008-.029-.011-.043-.018A8.856 8.856 0 0022.363 10a8.856 8.856 0 00-8.857 8.857 8.85 8.85 0 003.671 7.182l-.042.018a13.3 13.3 0 00-4.268 2.879 13.416 13.416 0 00-2.879 4.268 13.275 13.275 0 00-1.053 4.932.285.285 0 00.285.293h2.143a.285.285 0 00.286-.279 10.648 10.648 0 013.136-7.296 10.643 10.643 0 017.578-3.14c2.864 0 5.554 1.115 7.579 3.14a10.648 10.648 0 013.136 7.296.283.283 0 00.285.279h2.143a.286.286 0 00.286-.293 13.308 13.308 0 00-1.054-4.936zM22.363 25c-1.64 0-3.182-.64-4.343-1.8a6.103 6.103 0 01-1.8-4.343c0-1.64.64-3.182 1.8-4.343a6.103 6.103 0 014.343-1.8c1.64 0 3.182.64 4.343 1.8a6.103 6.103 0 011.8 4.343c0 1.64-.64 3.182-1.8 4.343a6.103 6.103 0 01-4.343 1.8z" fill="#D29191"/></svg>
